X: 2
T: Lost And Found
R: jig
M: 6/8
L: 1/8
K: Gmaj
|:G/G/GB d2 d|edB dBA|G/G/GB d2 g|edB AGE|G/G/GB d2 d|edB def|gfe dBA|Bee dBA:||:g/g/ga bge|f/f/fg afd|g/g/ga bge|edB GBd|g/g/ga bge|f/f/fg afd|gbg faf|efg edB:|


Tune 1160	Setting 1160

